X:1
T:Preghiera
T:Preghiera
T:Tu che ci cerde il prato
T:Gioachino Rossini
C:Gioachino Rossini
%%score [ 1 2 3 4 ]
L:1/8
Q:1/4=94
M:3/4
K:C
V:1 treble-8 nm="T1"
V:2 treble-8 nm="T2"
V:3 bass nm="B1"
V:4 bass nm="B2"
V:1
"^sotto voce""^Andantino" (e2 .f .e .B .c) | (d2 G2) g z | (c2 .c .c .d .^d) | (e2- e>f) =d z | %4
w: Tu che di ver- de il|pra- * to|ve- sti e i giar- din di|fio- * * ri,|
 (e2 .f .e .d .c) | (c2 f2) a z | z c d e f B |!mf!!>(! (d4 c)!>)! z |!pp! d2 d d _e e | d4 g z | %10
w: tu che di dol- ci u-|mo- * ri|sem- pre fe- con- di il|suol, _|tu che di ver- de il|pra- to|
!<(! d2 d d ^d d!<)! |!f!!>(! e6!>)! |!pp! e2 e e{/g} f e | (ed ^cd) (fd) | (=cB) ^A B g B | %15
w: ve- sti e i giar- din di|fior,|tu che di dol- ci u-|mo- * * * ri _|sem- * pre fe- con- di il|
 c2 z2 z3/2!ff! c/ | c2- c3/2 c/ e3/2 d/ | (c>A) c2 z3/2 c/ | (!^!a2- (3ae) !^!f (3(gd) !^!e | %19
w: suol. Si-|gnor, _ la me- sta|pre- * ce a|te _ _ non s'al- * zi in-|
 !^!f2 z2 z3/2!pp! A/ | A2- A3/2 d/ ^c3/2 d/ | (A>F) A2 z3/2!pp! A/ | (c2- (3cd) e (3(dc) B | %23
w: van, ma|por- * gi a noi la|ma- * no, rat-|tem- * * pra il no- * stro|
 A2 z4 | z3/2!mf!!>(! f/ e d!>)! c B | c2 c z z2 | z3/2!mf!!>(! f/ e d!>)! c B | c2 z2!p! c2 | %28
w: duol,|Si- gnor, la me- sta|pre- ce|a te non s'al- zi in|van, ma|
 ^c3!<(! c c c | d2 d!<)! z d2 |!f! e3 e e e |!ff! ^f2 f z!mf!!>(! (a>^d) | ^d2 d!>)! z!p! (^f>e) | %33
w: por- gi a noi la|ma- no, ma|por- gi a noi la|ma- no, rat- *|tem- pra, rat- *|
 e3!pp! (.e .e .e) | e3 (.e .e .e) | A2 z2"^rall."!>(! B2!>)! | c2 z2!p! d2 | %37
w: tem- pra il no- stro|duol, il no- stro|duol. Si-|gnor, deh!|
"^sotto voce""^Primo tempo" (e2 .f .e .B .c) | (d2 G2) g z | (c2 .c .c .d .^d) | (e2- e>f) =d z | %41
w: Tu che di ver- de il|pra- * to|ve- sti e i giar- din di|fio- * * ri,|
 (e2 .f .e .d .c) | (c2 f2) a z | z c d e f B |!mf!!>(! (d4 c)!>)! z | d2 d d _e e | d4 g z | %47
w: tu che di dol- ci u-|mo- * ri|sem- pre fe- con- di il|suol, _|Si- gnor, la me- sta|pre- ce|
!<(! d2 d d ^d d!<)! |!f!!>(! e6!>)! |!pppp! e2 e e e e | f4 _d2 | c2 c _e _d _B | _A2 z c c c | %53
w: a te non s'al- zi in-|van,|ma por- gi a noi la|ma- no,|rat- tem- pra il no- stro|duol, mai por- gi a|
 (c>d) B"^cresc." d d d | (d>e) ^c!f! e e e | (e>^f) ^d z z2 |!pp! e2 e ^f g f | (e>^d) e4 | %58
w: no- * i, mai por- gi a|no- * i, a noi la|ma- * no,|Si- gnor, la me- sta|pre- * ce|
 (e>f) e e e e |!<(! e4- e z!<)! |"^cresc." e2 e ^f g f | (e>^f) e2!f! e2 | %62
w: a- * te non s'al- zi in-|van, _|ma por- gi a noi la|ma- * no, rat-|
 e2- e !^!^d !^!^c !^!d | !^!e2 z2"^rall."!>(! ^d2!>)! | e2 z2!p! ^d2 | %65
w: tem- * pre il no- stro|duol, Si-|gnor, deh!|
"^molto sotto voce""^Primo tempo" (e2 .f .e .B .c) | (d2 G2) g z | (c2 .c .c .d .^d) | %68
w: Tu che di- ver- de il|pra- * to|ve- sti e i giar- din di|
 (e2- e>f) =d z | (e2 .f .e .d .c) | (c2 f2) a z | z c d e f B |!ppp! c z z g ^f =f | %73
w: fio- * * ri,|tu che di dol- ci u-|mo- * ri|sem- pre fe- con- di il|suol, Si- gnor a|
 e _e d c B _B |"^cresc." (A^c) (dc) (d=e) | (f^c) (de) (fd) |!f!!>(! (ag) B =c!>)!!pp! e3/2 d/ | %77
w: noi, deh! por- gi a noi la|ma- * no, _ rat- *|tem- * pra, _ rat- *|tem- * pra il no- stro|
 c z z g ^f =f | e _e d c B _B |"^cresc." (A^c) (dc) (d=e) | (f^c) (de) (fd) | %81
w: duol; Si- gnor a|noi, deh! por- gi a noi la|ma- * no, _ rat- *|tem- * pra, _ rat- *|
!f!!>(! (ag) B =c!>)!!pp! e3/2 d/ | c2 z3/2 e/ e2- | e z z3/2 f/ f2- | f z z2!pppp! z2 | %85
w: tem- * pra, il no- stro|duol, Si- gnor,|_ Si- gnor,|_|
[Q:1/4=71]"^Adagio" [Gg]6 | [cc']4 z2 |] %87
w: mai|duol.|
V:2
"^sotto voce" (c2 .c .c .G .G) | B4 B z | (A2 .A .A .c .c) | (c2- c>d) B z | (_B2 .B .B .B .B) | %5
w: Tu che di ver- de il|pra- to|ve- sti e i giar- din di|fio- * * ri,|tu che di dol- ci u-|
 (A2 c2) _e z | z c B c c G |!mf!!>(! (B4 c)!>)! z |!pp! B2 B B c c | B4 B z |!<(! B2 B B B B!<)! | %11
w: mo- * ri|sem- pre fe- con- di il|suol, _|tu che di ver- de il|pra- to|ve- sti e i giar- din di|
!f!!>(! B4- B z!>)! |!pp! ^c2 c c c c | A4 _A2 | F2 F F F G | G2 z2 z3/2!ff! c/ | %16
w: fior, _|tu che di dol- ci u-|mo- ri|sem- pre fe- con- di il|suol. Si-|
 c2- c3/2 c/ B3/2 B/ | (c>A) c2 z3/2 c/ | (!^!f2- (3fc) !^!A (3(d_B) !^!G | !^!A2 z2 z3/2!pp! A/ | %20
w: gnor, _ la me- sta|pre- * ce a|te _ _ non s'al- * zi in-|van, ma|
 A2- A3/2 A/ _B3/2 B/ | (A>F) A2 z3/2!pp! A/ | (A2- (3AB) c (3(BA) ^G | A2 z2!mf! c2 | %24
w: por- * gi a noi la|ma- * no, rat-|tem- * * pra il no- * stro|duol, Si-|
 B2- B B E E | A2 A z c2 | B2- B B E E | A!f! z/ A/!>(! A4-!>)! | A6 | A!f! z/ A/ A4- | A3 A A A | %31
w: gnor, _ la me- sta|pre- ce, Si-|gnor, _ non s'al- zi in|van, ma por-||gi a noi,|_ a noi la|
!ff! c2 c z!mf!!>(! (^F>c) | c2 c!>)! z!p! (A>c) | c3!pp! (.c .d .c) | B3 (.B .A .B) | A2 z2 z2 | %36
w: ma- no, rat- *|tem- pra, rat- *|tem- pra il no- stro|duol, il no- stro|duol.|
 z6 |"^sotto voce" (e2 .f .e .d .c) | B4 B z | (A2 .A .A .c .c) | (c2- c>d) B z | %41
w: |Tu che di ver- de il|pra- to|ve- sti e i giar- din di|fio- * * ri,|
 (_B2 .B .B .B .B) | (A2 c2) _e z | z c B c c G |!mf!!>(! (B4 c)!>)! z | B2 B B c c | B4 B z | %47
w: tu che di dol- ci u-|mo- * ri|sem- pre fe- con- di il|suol, _|Si- gnor, la me- sta|pre- ce|
!<(! B2 B B B B!<)! |!f!!>(! B4- B z!>)! |!pppp! _B2 B B B B | _A4 _B2 | _A2 A c _B G | %52
w: a te non s'al- zi in-|van, _|ma por- gi a noi la|ma- no,|rat- tem- pra il no- stro|
 _E2 z2 (EF) | (G2 D)"^cresc." z (FG) | (A2 E)!f! z (GA) | (B2 ^F) z z2 |!pp! B6 | c6 | d4 d d | %59
w: duol, Si- *|gnor, _ Si- *|gnor, _ Si- *|gnor, _|Si-|gnor,|por- gi la|
!<(! c4 !^!B2!<)! |"^cresc." ^A2 A A A A | B2 B2!f! _B2 | A2- A !^!A !^!A !^!A | !^!G2 z2 z2 | z6 | %65
w: ma- no,|ma por- gi a noi la|ma- no, rat-|tem- * pre il no- stro|duol,||
"^molto sotto voce"!p! (c2 .c .c .G .G) | B4 B z | (A2 .A .A .c .c) | (c2- c>d) B z | %69
w: Tu che di- ver- de il|pra- to|ve- sti e i giar- din di|fio- * * ri,|
 (_B2 .B .B .B .B) | (A2 c2) _e z | z c B c d G |!ppp! G z z2 z c | c c G G G E | %74
w: tu che di dol- ci u-|mo- * ri|sem- pre fe- con- di il|suol, Si-|gnor, deh! por- gi a noi la|
"^cresc." (A_B) (AB) A2 | A2 (AG) (FA) |!f!!>(! (Bc) _A G!>)!!pp! B3/2 B/ | c z z2 z c | %78
w: ma- * no, _ rat-|tem- pra, _ rat- *|tem- * pra il no- stro|duol; Si-|
 c c G G G E |"^cresc." (A_B) (AB) A2 | A2 (AG) (FA) |!f!!>(! (Bc) _A G!>)!!pp! B3/2 B/ | %82
w: gnor, deh! por- gi a noi la|ma- * no, _ rat-|tem- pra, _ rat- *|tem- * pra, il no- stro|
 c2 z3/2 B/ B2- | B z z3/2 c/ c2- | c z z2!pppp! z2 | [Bd]6 | [Gc]4 z2 |] %87
w: duol, Si- gnor,|_ Si- gnor,|_|mai|duol.|
V:3
"^sotto voce" (G,2 .A, .G, .F, .E,) | (F,2 D,2) F, z | (E,2 .E, .E, .F, .^F,) | G,4 G, z | %4
w: Tu che di ver- de il|pra- * to|ve- sti e i giar- din di|fio- ri,|
 (G,2 .G, .G, .G, .G,) | A,4 C z | z E, G, C A, F, |!mf!!>(! (F,4 E,)!>)! z |!pp! B,2 B, B, A, A, | %9
w: tu che di dol- ci u-|mo- ri|sem- pre fe- con- di il|suol, _|tu che di ver- de il|
 B,4 B, z |!<(! B,2 B, B, A, A,!<)! |!f!!>(! ^G,4- G, z!>)! |!pp! =G,2 G, G, G, G, | F,4 F,2 | %14
w: pra- to|ve- sti e i giar- din di|fior, _|tu che di dol- ci u-|mo- ri|
 D,2 ^C, D, D, F, | E,2 z2 z3/2!ff! C/ | A,2- A,3/2 A,/ ^G,3/2 G,/ | (A,>F,) A,2 z3/2 C/ | %18
w: sem- pre fe- con- di il|suol. Si-|gnor, _ la me- sta|pre- * ce a|
 (!^!C2- (3CG,) !^!A, (3(_B,G,) !^!C | !^!C2 z2 z3/2!pp! A,/ | F,2- F,3/2 F,/ G,3/2 G,/ | %21
w: te _ _ non s'al- * zi in-|van, ma|por- * gi a noi la|
 (F,>D,) F,2 z3/2!pp! A,/ | (A,2- (3A,E,) E (3(^G,A,) B, | A, z/!f! E,/!>(! (F,4-!>)! | %24
w: ma- * no, rat-|tem- * * pra il no- * stro|duol, Si- gno-|
 F,>D,) E,4- | E, z/!f! E,/!>(! (F,4-!>)! | F,>D,) E,4- | E,2 z2!p! A,2 | A,3!<(! A, A, A, | %29
w: * * re,|_ Si- gno-|* * re,|_ ma-|por- gi a noi la|
 A,2 A,!<)! z A,2 |!f! C3 C C C |!ff! A,2 A, z!mf!!>(! (C>^F,) | ^F,2 F,!>)! z!p! (C>A,) | %33
w: ma- no, ma|Por- gi a noi la|ma- no, rat- *|tem- pra, rat- *|
 A,3!pp! (.A, .B, .A,) | ^G,3 (.G, .^F, .G,) | A,2 z2 z2 | z6 | %37
w: tem- pra il no- stro|duol, il no- stro|duol.||
"^sotto voce" (G,2 .G, .G, .D, .D,) | (F,2 D,2) F, z | (E,2 .E, .E, .F, .^F,) | G,4 G, z | %41
w: Tu che di ver- de il|pra- * to|ve- sti e i giar- din di|fio- ri,|
 (G,2 .G, .G, .G, .G,) | A,4 C z | z E, G, C A, F, |!mf!!>(! (F,4 E,)!>)! z | B,2 B, B, A, A, | %46
w: tu che di dol- ci u-|mo- ri|sem- pre fe- con- di il|suol, _|Si- gnor, la me- sta|
 B,4 B, z |!<(! B,2 B, B, A, A,!<)! |!f!!>(! ^G,4- G, z!>)! |!pppp! =G,2 G, G, G, G, | F,4 F,2 | %51
w: pre- ce|a te non s'al- zi in-|van, _|ma por- gi a noi la|ma- no,|
 _E,2 E, E, E, _D, | C,2 z2 C,2 | (E,2 G,)"^cresc." z D,2 | (E,2 A,)!f! z E,2 | (^F,2 B,) z z2 | %56
w: rat- tem- pra il no- stro|duol, Si-|gnor, _ Si-|gnor, _ Si-|gnor, _|
!pp! E,6 | A,6 | _A,4 A, A, |!<(! G,>^F, G,4!<)! |"^cresc." G,2 G, ^F, E, F, | (G,>A,) G,2!f! G,2 | %62
w: Si-|gnor,|por- gi la|ma- * no,|ma por- gi a noi la|ma- * no, rat-|
 ^F,2- F, !^!F, !^!E, !^!F, | !^!E,2 z2 z2 | z6 |"^molto sotto voce"!p! (G,2 .A, .G, .F, .E,) | %66
w: tem- * pre il no- stro|duol,||Tu che di- ver- de il|
 (F,2 D,2) F, z | (E,2 .E, .E, .F, .^F,) | G,4 G, z | (G,2 .G, .G, .G, .G,) | A,4 C z | %71
w: pra- * to|ve- sti e i giar- din di|fio- ri,|tu che di dol- ci u-|mo- ri|
 z E, G, C A, F, |!ppp! E, C B, _B, A, _A, | G, ^F, =F, E, F, G, |"^cresc." (A,G,) (A,G,) (A,G,) | %75
w: sem- pre fe- con- di il|suol, Si- gnor, deh! por- gi a|noi, deh! por- gi a noi la|ma- * no, _ rat- *|
 (F,G,) (A,_B,) (A,F,) |!f!!>(! (^D,E,) F, E,!>)!!pp! F,3/2 F,/ | E, C B, _B, A, _A, | %78
w: tem- * pra, _ rat- *|tem- * pra il no- stro|duol; Si- gnor, deh! por- gi a|
 G, ^F, =F, E, F, G, |"^cresc." (A,G,) (A,G,) (A,G,) | (F,G,) (A,_B,) (A,F,) | %81
w: noi, deh! por- gi a noi la|ma- * no, _ rat- *|tem- * pra, _ rat- *|
!f!!>(! (^D,E,) F, E,!>)!!pp! F,3/2 F,/ | E,2 z3/2 ^G,/ G,2- | G, z z3/2 A,/ A,2- | %84
w: tem- * pra, il no- stro|duol, Si- gnor,|_ Si- gnor,|
 A, z z2!pppp! z2 | F,6 | E,4 z2 |] %87
w: _|mai|duol.|
V:4
"^sotto voce" (C,2 .C, .C, .C, .C,) | G,,4 G,, z | (A,,2 .A,, .A,, .A,, ._A,,) | (G,,2 G,2) G,, z | %4
w: Tu che di ver- de il|pra- to|ve- sti e i giar- din di|fio- * ri,|
 (C,2 .D, .C, .F, .E,) | (F,2 A,2) ^F, z | z G, =F, E, D, G,, |!mf!!>(! (G,,4 C,)!>)! z | %8
w: tu che di dol- ci u-|mo- * ri|sem- pre fe- con- di il|suol, _|
!pp! G,2 G, G, ^F, F, | G,4 G, z |!<(! G,2 G, G, ^F, F,!<)! |!f!!>(! E,4- E, z!>)! | %12
w: tu che di ver- de il|pra- to|ve- sti e i giar- din di|fior, _|
!pp! A,,2 A,, A,, A,, A,, | D,4 D,2 | G,,2 G,, G,, G,, G,, | C,2 z2 z3/2!ff! C,/ | %16
w: tu che di dol- ci u-|mo- ri|sem- pre fe- con- di il|suol. Si-|
 F,2- F,3/2 F,/ F,3/2 F,/ | F,2 F,2 z3/2 C,/ | (3(C,A,F, (3:2:2C,2) !^!C, (3:2:2C,2 !^!C, | %19
w: gnor, _ la me- sta|pre- ce a|te _ _ _ non s'al- zi in-|
 !^!F,2 z2 z3/2!pp! A,,/ | D,2- D,3/2 D,/ D,3/2 D,/ | D,2 D,2 z3/2!pp! A,/ | %22
w: van, ma|por- * gi a noi la|ma- no, rat-|
 (3(E,CA, (3:2:2E,2) E, (3:2:2E,2 E, | A,2 z2!mf! A,,2 | ^G,,3 G,, G,, G,, | %25
w: tem- * * * pra il no- stro|duol, Si-|gnor, la me- sta|
 A,,2 A,, z!mf!!>(! A,,2!>)! | ^G,,3 G,, G,, G,, | A,,2 z2!p! A,2 | G,3!<(! G, G, G, | %29
w: pre- ce, Si-|gnor, non s'al- zi in|van, ma-|por- gi a noi la|
 F,2 F,!<)! z F,2 |!f! E,3 E, E, E, |!ff! ^D,2 D, z!mf!!>(! (D,>A,) | A,2 A,!>)! z!p! (^D,>E,) | %33
w: ma- no, ma|Por- gi a noi la|ma- no, rat- *|tem- pra, rat- *|
 E,3!pp! (.E, .E, .E,) | E,3 (.E, .E, .E,) | A,2 z2 z2 | z6 |"^sotto voce" (C,2 .C, .C, .C, .C,) | %38
w: tem- pra il no- stro|duol, il no- stro|duol.||Tu che di ver- de il|
 G,,4 G,, z | (A,,2 .A,, .A,, .A,, ._A,,) | (G,,2 G,2) G,, z | (C,2 .D, .C, .F, .E,) | %42
w: pra- to|ve- sti e i giar- din di|fio- * ri,|tu che di dol- ci u-|
 (F,2 A,2) ^F, z | z G, =F, E, D, G,, |!mf!!>(! (G,,4 C,)!>)! z | G,2 G, G, ^F, F, | G,4 G, z | %47
w: mo- * ri|sem- pre fe- con- di il|suol, _|Si- gnor, la me- sta|pre- ce|
!<(! G,2 G, G, ^F, F,!<)! |!f!!>(! E,4- E, z!>)! |!pppp! C,2 C, C, C, C, | _D,4 _B,,2 | %51
w: a te non s'al- zi in-|van, _|ma por- gi a noi la|ma- no,|
 _E,2 E, E, E, [E,,E,] | _A,,2 z2 A,,2 | G,,2- G,,"^cresc." z _B,,2 | A,,2- A,,!f! z C,2 | %55
w: rat- tem- pra il no- stro|duol, Si-|gnor, _ Si-|gnor, _ Si-|
 B,,2- B,, z z2 |!pp! G,,6 | A,,6 | B,,4 B,, B,, |!<(! C,4 C,2!<)! |"^cresc." ^C,2 C, C, C, C, | %61
w: gnor, _|Si-|gnor,|por- gi la|ma- no,|ma por- gi a noi la|
 B,,2 B,,2!f! B,,2 | B,,2- B,, !^!B,, !^!B,, !^!B,, | !^!E,2 z2 z2 | z6 | %65
w: ma- no, rat-|tem- * pre il no- stro|duol,||
"^molto sotto voce"!p! (C,2 .C, .C, .C, .C,) | G,,4 G,, z | (A,,2 .A,, .A,, .A,, ._A,,) | %68
w: Tu che di- ver- de il|pra- to|ve- sti e i giar- din di|
 (G,,2 G,2) G,, z | (C,2 .D, .C, .F, .E,) | (F,2 A,2) ^F, z | z G, =F, E, D, G,, | %72
w: fio- * ri,|tu che di dol- ci u-|mo- * ri|sem- pre fe- con- di il|
!ppp! C, z z2 z2 | G,, A,, B,, C, D, E, |"^cresc." (F,E,) (F,E,) (F,^C,) | (D,E,) (F,^C,) (D,F,,) | %76
w: suol,|Sig- nor, por- gi a noi la|ma- * no, _ rat- *|tem- * pra, _ rat- *|
!f!!>(! G,,2 G,, G,,!>)!!pp! G,,3/2 G,,/ | C, z z2 z2 | G,, A,, B,, C, D, E, | %79
w: tem- pra il no- stro|duol;|Sig- nor, por- gi a noi la|
"^cresc." (F,E,) (F,E,) (F,^C,) | (D,E,) (F,^C,) (D,F,,) | %81
w: ma- * no, _ rat- *|tem- * pra, _ rat- *|
!f!!>(! G,,2 G,, G,,!>)!!pp! G,,3/2 G,,/ | C,2 z3/2 E,/ E,2- | E, z z3/2 D,/ D,2- | %84
w: tem- pra, il no- stro|duol, Si- gnor,|_ Si- gnor,|
 D, z z2!pppp! z2 | G,,6 | [C,,C,]4 z2 |] %87
w: _|mai|duol.|

